X:1812
T:The Axum Reel
P:Lord Elgin's Fancy
C:Beauties of Gow
R:Strathspey (nx32)
B:RSCDS 18-12
Z:Anselm Lingnau <anselm@strathspey.org>
M:4/4
L:1/8
K:G
f|"G"g>d B<G "C"c<e "G"d2|"G"g>d B<G "Am"E>A "D"F<D|\
  "G"g>d B<G "C"c<e "G"d2|"Em"B>g "Am"e>a "D"f<d "G"g f|
  "G"g>d B<G "C"c<e "G"d2|"G"g>d B<G "Am"E>A "D"F<D|\
  "G"g>d B<G "C"c<e "G"d2|"Em"B>g "Am"e>a "D"f<d "G"g||
f|"Em"e>e g>e b>g e>B|G<G "B"B>A "Em"G>B G>E|\
  "Em"e<e g>e "B"^d>f B>a|"E7"g>e "B7"B>^d e>f "D"f2|
  "G"g>d B<G "C"c<e "G"d2|"G"g>d B<G "Am"E<A "D"F>D|\
  "G"g>d B<G "C"c<e "G"d2|"Am"e>a "D"g/f/e/f/ "G"g2 g|]
